src/pictures/icons/cardAddIcon.svg

<svg width="20" height="20" viewBox="0 0 20 20" fill="none" xmlns="http://www.w3.org/2000/svg">
<path d="M1.66663 7.08398H11.25" stroke="#DBBE8F" stroke-width="1.5" stroke-miterlimit="10" stroke-linecap="round" stroke-linejoin="round"/>
<path d="M5 13.75H6.66667" stroke="#DBBE8F" stroke-width="1.5" stroke-miterlimit="10" stroke-linecap="round" stroke-linejoin="round"/>
<path d="M8.75 13.75H12.0833" stroke="#DBBE8F" stroke-width="1.5" stroke-miterlimit="10" stroke-linecap="round" stroke-linejoin="round"/>
<path d="M18.3333 10.0243V13.4243C18.3333 16.3494 17.5916 17.0827 14.6333 17.0827H5.36663C2.40829 17.0827 1.66663 16.3494 1.66663 13.4243V6.57435C1.66663 3.64935 2.40829 2.91602 5.36663 2.91602H11.25" stroke="#DBBE8F" stroke-width="1.5" stroke-linecap="round" stroke-linejoin="round"/>
<path d="M13.75 5.20898H18.3333" stroke="#DBBE8F" stroke-width="1.5" stroke-linecap="round"/>
<path d="M16.0416 7.49935V2.91602" stroke="#DBBE8F" stroke-width="1.5" stroke-linecap="round"/>
</svg>

<svg width="20" height="20" fill="none" xmlns="http://www.w3.org/2000/svg"><path d="M1.667 7.084h9.583M5 13.75h1.667M8.75 13.75h3.333" stroke="#DBBE8F" stroke-width="1.5" stroke-miterlimit="10" stroke-linecap="round" stroke-linejoin="round"/><path d="M18.333 10.024v3.4c0 2.925-.741 3.659-3.7 3.659H5.367c-2.959 0-3.7-.734-3.7-3.659v-6.85c0-2.925.741-3.658 3.7-3.658h5.883" stroke="#DBBE8F" stroke-width="1.5" stroke-linecap="round" stroke-linejoin="round"/><path d="M13.75 5.209h4.583M16.042 7.5V2.915" stroke="#DBBE8F" stroke-width="1.5" stroke-linecap="round"/></svg>
